public/images/about/person.svg

<svg width="80" height="78" viewBox="0 0 80 78" fill="none" xmlns="http://www.w3.org/2000/svg">
<path d="M39.9688 20.5C44.8012 20.5 48.7188 16.5825 48.7188 11.75C48.7188 6.91751 44.8012 3 39.9688 3C35.1363 3 31.2188 6.91751 31.2188 11.75C31.2188 16.5825 35.1363 20.5 39.9688 20.5Z" stroke="#4F4F4F" stroke-width="2" stroke-linecap="round" stroke-linejoin="round"/>
<path d="M48.0928 40.0937L58.9678 48.5312C59.6867 49.1297 60.6034 49.4378 61.5378 49.3952C62.4723 49.3525 63.3571 48.9622 64.0185 48.3007C64.6799 47.6393 65.0703 46.7545 65.1129 45.8201C65.1556 44.8856 64.8475 43.969 64.249 43.25L51.874 27.3438C51.2973 26.7612 50.6112 26.2984 49.855 25.982C49.0988 25.6655 48.2875 25.5018 47.4678 25.5H32.4678C30.8041 25.5089 29.2104 26.171 28.0303 27.3438L15.6553 43.25C15.0109 43.9652 14.6663 44.9009 14.6928 45.8632C14.7193 46.8255 15.1149 47.7407 15.7976 48.4194C16.4803 49.0981 17.3979 49.4883 18.3603 49.5091C19.3228 49.5299 20.2564 49.1798 20.9678 48.5312L31.8428 40.0937L23.1553 67.4688C22.946 67.9161 22.8268 68.4002 22.8047 68.8936C22.7825 69.3869 22.8577 69.8798 23.026 70.3441C23.1943 70.8084 23.4524 71.235 23.7856 71.5996C24.1188 71.9641 24.5205 72.2595 24.9678 72.4688C25.4151 72.678 25.8993 72.7972 26.3926 72.8194C26.886 72.8415 27.3789 72.7663 27.8432 72.598C28.3075 72.4297 28.7341 72.1716 29.0986 71.8384C29.4631 71.5053 29.7585 71.1036 29.9678 70.6562L39.9678 54.9063L49.9678 70.6562C50.1631 71.1231 50.4509 71.5456 50.8139 71.8982C51.1768 72.2509 51.6074 72.5265 52.0797 72.7083C52.5519 72.8902 53.0561 72.9745 53.5618 72.9564C54.0676 72.9382 54.5644 72.8178 55.0224 72.6026C55.4804 72.3873 55.8901 72.0815 56.2268 71.7037C56.5634 71.3259 56.8202 70.8839 56.9815 70.4042C57.1428 69.9245 57.2054 69.4172 57.1655 68.9127C57.1255 68.4082 56.9838 67.917 56.749 67.4688L48.0928 40.0937Z" stroke="#4F4F4F" stroke-width="2" stroke-linecap="round" stroke-linejoin="round"/>
</svg>

<svg xmlns="http://www.w3.org/2000/svg" width="80" height="78" fill="none"><path stroke="#4F4F4F" stroke-linecap="round" stroke-linejoin="round" stroke-width="2" d="M39.969 20.5a8.75 8.75 0 1 0 0-17.5 8.75 8.75 0 0 0 0 17.5ZM48.093 40.094l10.875 8.437a3.75 3.75 0 0 0 5.281-5.281L51.874 27.344a6.218 6.218 0 0 0-4.406-1.844h-15a6.343 6.343 0 0 0-4.438 1.844L15.655 43.25a3.75 3.75 0 0 0 5.313 5.281l10.875-8.437-8.688 27.375a3.759 3.759 0 0 0 1.813 5 3.763 3.763 0 0 0 5-1.813l10-15.75 10 15.75a3.747 3.747 0 0 0 5.054 1.947 3.75 3.75 0 0 0 1.727-5.134l-8.656-27.375Z"/></svg>
